X: 17856
T: Hornet's Nest, The
R: reel
M: 4/4
K: Gdorian
DGGF GABc|d2gd fdcB|Gdfd fdcB|cBc_d cBGF|
DGGF GABc|d2gd fdcB|cBc_d cBGc|1 BGFD G2GF:|2 BGFD G2df||
g2gf gagf|dcBc d2de|f2fe fgfd|cBDE FDBA|
G2GF GABc|d2gd fdcB|cBc_d cBGc|1 BGFD G2df:|2 BGFD G4||

